X:1
T:Fyre and lightning
T:Thoma Morley
T:Source : First book of canzonets to two voices---London---T.Este---1595. Editor : André Vierendeels (19/11/16).
T:Notes : Original clefs : G2, G2
T:Fyre and lightning
T:©
T:©
T:©
C:Thoma Morley
Z:©
%%score [ 1 2 ]
L:1/8
Q:1/4=119
M:4/4
K:C
V:1 treble nm="Soprano 1" snm="S 1"
V:2 treble nm="Soprano 2" snm="S 2"
V:1
 d4 G2 g2- | gg ^f2 g4 | d2 d2 G2 g2- | gg ^f2 g4 | d4 z2 g2 | gfed e2 c2 | cdef g2 G2- | %7
w: Fyre and light-|* ning from heaven|fall, fyre and light-|* ning from heaven|fall, and|sweet- * * * * ly|en- * * * flame that|
 G2 d3 c c2- | c2 B2 A4 | B4 d4 | G2 g3 g ^f2 | g4 d2 d2 | G2 g3 g ^f2 | g4 d4 | z2 g2 gfed | %15
w: _ hart with love|_ a- right-|full, fyre|and light- ning from|heaven fall, fyre|and light- ning from|heaven fall,|and sweet- * * *|
 e2 c2 cdef | g2 G4 d2- | dc c4 B2 | A4 B2 G2 | _d3 e f2 =d2 | AGAB c4 | G2 G2 B3 c | d2 d2 AGAB | %23
w: * ly en- * * *|flame that hart|_ with love a-|right- full, of|Flo- ra my de-|light- * * * *|full, of Flo- ra|mu de- light- * * *|
 c4 z2 d2 | f3 g a2 d2 | ^c2 d4 c2 | d2 d2 cB B A/G/ | A4 B2 G2 | d3 e f2 d2 | AGAB c4 | %30
w: full, of|Flo- ra my de-|light- * *|full, so faire but yet so _|spight- ful, of|Flo- ra my de-|light- * * * *|
 G2 G2 B3 c | d2 d2 AGAB | c4 G4 | z2 d2 f3 g | a2 d2 ^c2 d2- | d2 ^c2 d2 D2 | G3 E ^F2 G2 | %37
w: full, of Flo- ra|my de- light- * * *|* full,|of Flo- ra|my de- light- *|* * full, so|faire but yet so|
 A4 B4- | B8 |] %39
w: spight- full.|_|
V:2
 z8 | d4 G2 g2- | gg ^f2 g4 | d2 d2 G2 g2- | gg ^f2 g2 G2 | z2 g2 gfed | e2 c2 GABc | d2 D2 A3 E | %8
w: |Fyre and light-|* ning from heaven|fall, fyre and light-|* ning from heaven fall,|and sweet- * * *|* ly en- * * *|flame that hart with|
 ^F2 G2 G2 F2 | G8 | z4 d4 | G2 g3 g ^f2 | g4 d2 d2 | G2 g3 g ^f2 | g2 G2 z2 g2 | gfed e2 c2 | %16
w: love a- right- *|full,|fyre|and light- ning from|heaven fall, fyre|and light- ning from|heaven fall, and|sweet- * * * * ly|
 GABc d2 D2 | A3 E ^F2 G2 | G2 ^F2 G4 | z2 G2 d3 e | f2 cd edef | g4 d4 | z2 D2 F3 G | A2 A2 EDEF | %24
w: en- * * * flame that|hart with love a-|right- * full,|of Flo- ra|my de- * * * * *|light- full,|of Flo- ra|mu de- light- * * *|
 D2 d2 f3 g | a2 f2 e4 | d2 B2 AG G2- | GG ^F2 G4 | z2 G2 d3 e | f2 cd edef | g4 d4 | z2 D2 F3 G | %32
w: full, of Flo- ra|my de- light-|full, so faire but yet|_ so spigh- ful,|of Flo- ra|my de- * * * * *|light- full,|of Flo- ra|
 A2 A2 EDEF | G4 D2 d2 | f3 g a2 f2 | e4 d2 d2 | B3 c A2 G2 | G2 ^F2 G4- | G8 |] %39
w: my de- light- * * *|* full, of|Flo- ra mu de-|light- full, so|faire but yet so|spight- * full.|_|

